X: 9243
T: Dan Leno's Boat
R: polka
M: 2/4
K: Gmajor
d|gf ed|BB/A/ Bd|gf ed|cc/B/ c>d|
ff f>d|ff f>e|dd ec|B3|
d|gf ed|BB/A/ Bd|gf ed|cc/B/ c>d|
ff f>d|ff f>e|dd cA|G3||
d/c/|B d/c/ Bd|B3 d/c/|B d/c/ Bd|c3 e/d/|
c e/d/ ce|ff fg|ag fe|d3|
d/c/|B d/c/ Bd|B3 d/c/|B d/c/ Bd|c3 e/d/|
c e/d/ ce|ff ff|ag fa|g3||

